X:26
T:26 Galloway Girth
C:Welch MS
I:abc2nwc
M:2/4
L:1/16
K:G
e2f2g2e2|d2B2B2d2|c2A2A2c2|d2B2B2d2|e2f2g2e2|d2B2B2d2|c2A2B2G2|E4E4:|
B2c2B2A2|B2c2 d4|A2B2A2G2|F2G2 A4|B2c2B2A2|B2c2d2e2|d2B2d2F2|E4E4:|


